X: 48
T: St. Patrick's Day in the Morning
C:
R: jig
B: NEFR #48
N: Many versions of this tune have irregular phrase lengths.
Z: 2012 John Chambers <jc:trillian.mit.edu>
M: 6/8
L: 1/8
K: G
|:"G"GAG GBc | ded dBG | "Am"AGA "G"BGD | "C"EFE "D7"E2D \
| "G"GAG GBc | ded dBG | "Am"AGA "G"BGD | "C"E2"D"F "G"G2D :|
|:"D"def "Em"g2g | "D"fed "Em"edB | "D"def "Em"gag | "D"fed "Em"e3 \
| "D"def "Em"g2g | "D"fed "Em"edB | "D"def "Em"gag | "D"fed "Em"efg :|


